packages/kaspersky-hexa-ui-icons/src/iconsSVGs/16/Cybertrace.svg

<svg width="16" height="16" viewBox="0 0 16 16" fill="none" xmlns="http://www.w3.org/2000/svg">
<path d="M1.57808 1.58931C1.83192 1.33547 2.24347 1.33547 2.49731 1.58931L5.668 4.75999L5.66799 3.48197C5.66799 3.12299 5.959 2.83197 6.31798 2.83197C6.67697 2.83197 6.96799 3.12298 6.96799 3.48197L6.96801 6.32922C6.96801 6.50161 6.89953 6.66694 6.77763 6.78884C6.76696 6.79951 6.75596 6.80977 6.74465 6.81961C6.63799 6.9126 6.50822 6.96495 6.37554 6.97668C6.35649 6.97837 6.33729 6.97923 6.31801 6.97923H3.42362C3.06464 6.97923 2.77362 6.68821 2.77362 6.32923C2.77362 5.97024 3.06464 5.67922 3.42362 5.67922H4.74876L1.57808 2.50855C1.32424 2.2547 1.32424 1.84315 1.57808 1.58931Z" fill="black"/>
<path d="M6.31798 13.1681C6.67697 13.1681 6.96799 12.8771 6.96799 12.5181L6.96801 9.67082C6.96801 9.64478 6.96644 9.6189 6.96337 9.59331C6.9461 9.44947 6.88111 9.31468 6.77763 9.21119C6.76696 9.20053 6.75596 9.19027 6.74465 9.18043C6.62673 9.07783 6.47531 9.02081 6.31801 9.02081H3.42362C3.06464 9.02081 2.77362 9.31183 2.77362 9.67081C2.77362 10.0298 3.06464 10.3208 3.42362 10.3208H4.74876L1.57808 13.4915C1.32424 13.7453 1.32424 14.1569 1.57808 14.4107C1.83192 14.6646 2.24347 14.6646 2.49731 14.4107L5.668 11.2401L5.66799 12.5181C5.66799 12.877 5.959 13.1681 6.31798 13.1681Z" fill="black"/>
<path d="M13.5024 1.58931C13.7563 1.33547 14.1678 1.33547 14.4217 1.58931C14.6755 1.84315 14.6755 2.2547 14.4217 2.50855L11.251 5.67922H12.5761C12.9351 5.67922 13.2261 5.97024 13.2261 6.32923C13.2261 6.68821 12.9351 6.97923 12.5761 6.97923H9.68174C9.66245 6.97923 9.64326 6.97837 9.6242 6.97668C9.49152 6.96495 9.36175 6.9126 9.2551 6.81961C9.24379 6.80977 9.23279 6.79951 9.22212 6.78884C9.10022 6.66694 9.03174 6.50161 9.03174 6.32922L9.03176 3.48197C9.03176 3.12298 9.32278 2.83197 9.68176 2.83197C10.0407 2.83197 10.3318 3.12299 10.3318 3.48197L10.3317 4.75999L13.5024 1.58931Z" fill="black"/>
<path d="M9.6817 13.1681C9.32272 13.1681 9.0317 12.8771 9.0317 12.5181L9.03168 9.67082C9.03168 9.64494 9.03322 9.61922 9.03626 9.59379C9.05344 9.44977 9.11846 9.3148 9.22206 9.21119C9.23258 9.20067 9.24343 9.19055 9.25458 9.18083C9.37256 9.07798 9.52417 9.02081 9.68168 9.02081H12.5761C12.935 9.02081 13.2261 9.31183 13.2261 9.67081C13.2261 10.0298 12.935 10.3208 12.5761 10.3208H11.2509L14.4216 13.4915C14.6754 13.7453 14.6754 14.1569 14.4216 14.4107C14.1678 14.6646 13.7562 14.6646 13.5024 14.4107L10.3317 11.2401L10.3317 12.5181C10.3317 12.877 10.0407 13.1681 9.6817 13.1681Z" fill="black"/>
</svg>

<svg xmlns="http://www.w3.org/2000/svg" width="16" height="16" fill="none" viewBox="0 0 16 16"><path fill="#000" fill-rule="evenodd" d="M1.578 1.5893a.65.65 0 0 1 .9193 0L5.668 4.76V3.482a.65.65 0 1 1 1.3 0v2.8472a.65.65 0 0 1-.65.65H3.4236a.65.65 0 0 1 0-1.3h1.3252L1.578 2.5086a.65.65 0 0 1 0-.9193m11.9244 0a.65.65 0 0 1 .9193.9193L11.251 5.6792h1.3251a.65.65 0 1 1 0 1.3H9.6817a.647.647 0 0 1-.4596-.1904.65.65 0 0 1-.1904-.4596V3.482a.65.65 0 0 1 1.3001 0V4.76zM6.318 13.1681a.65.65 0 0 0 .65-.65V9.6708a.65.65 0 0 0-.1904-.4596.65.65 0 0 0-.4596-.1904H3.4236a.65.65 0 0 0 0 1.3h1.3252L1.578 13.4915a.65.65 0 1 0 .9192.9192L5.668 11.24v1.2781a.65.65 0 0 0 .65.65m3.3637 0a.65.65 0 0 1-.65-.65V9.6708a.65.65 0 0 1 .2229-.49.65.65 0 0 1 .427-.16h2.8945a.65.65 0 1 1 0 1.3h-1.3252l3.1707 3.1707a.65.65 0 0 1 0 .9192.65.65 0 0 1-.9192 0L10.3317 11.24v1.2781a.65.65 0 0 1-.65.65"/></svg>
